X: 756
P: Longways for as many as will
M: C|
L: 1/8
K: F
c |\
(AB) (cA) (dc) (AF) | G2 C2 C3 c |\
(AB) (cA) f3 c | A2 F2 F3 :|\
f/g/ |\
agfe fc fg | agab g3 f |
ef gc de fA | Bc dG E3 C |\

